X: 281
T: Bon-Accord
C: Bert Murray
R: waltz
B: Bert Murray's "Bon Accord Collection" 1999 p.28
%
N: Bon Accord is an early name for Aberdeen
Z: 2010 John Chambers <jc:trillian.mit.edu>
M: 3/4
L: 1/8
K: C
uE2 |\
C3 G, CD | E4 F2 | G3 E Gc | e4 c2 |\
e3 d cA | G4 C2 | B,6- | B,2 z2 C2 |
D3 ^C DE | F4 G2 | A3 G ^FG | d4 c2 |\
B4 D2 | A4 G2 | E6- | E2 z2 ||
E2 |\
C3 G, CD | E4 F2 | G3 E Gc | e4 c2 |\
e3 c eg | f4 d2 | A6- | A2 z2 B2 |
c3 c Bc | d4 c2 | e3 d cA | G4 E2 |\
G3 G ^FG | A4 B2 | c6- | c2 z2 |]
G2 |\
e2 e3 d | c2 c3 A | G2 G3 E | G4 G2 |\
e3 d cA | G4 c2 | B6- | B2 z2 G2 |
f2 f3 e | d2 d3 c | B3 c BA | G6 |\
B3 A G^F | =F4 G2 | E6- | E2 z2 ||
G2 |\
e2 e3 d | c2 c3 A | G2 G3 E | G6 |\
e3 ceg |f4 d2 | A6- | A2 z2 B2 |
c3 c Bc | d4 c2 | e3 d cA | G4 E2 |\
G3 G ^FG | A4 B2 | c6- | c2 z2 |]
